X:2
T:B002-  Ah! Chloris awake
S:via BBBM, from 'Pills' IV, 313 (1719-20)
Q:1/4=120
L:1/4
M:3/4
K:Gm
d|\
ggf|d(c/2B/2)(A/2G/2)|^FG(A/4B/4c/2)|B2A/2A/2|\
ggf|dBe|cA(G/2^F/2)| G2|| d| ggf|f3/2g/2(a/2g/2)|\
fdd|d3/2d/2c/2B/2|fAA|(A/2c/2)(d/2c/2)e/2d/2|^F(E/2D/2)D|\
D2d|A3/2B/2(A/4B/4c/2)|=BBf|d(d/2e/2)(f/2d/2)|\
e2d|c(f/2g/2)(f/2d/2)|c3/2B/2A|(B/2c/2)A3/2G/2|G2||
